X:3
T:Blattibärgli-Juiz  Bb  ABAC
T:Edi Schrackmann  (4.11.1930-8.7.1998)
T:Dirigenten-Notiz, Edi Gasser
C:Unterwalden (CH)
%%partsbox
P:ABAC
M:2/4+3/4
R:Naturjodel
L:1/4
K:Bb
[P:A] F | f>e/d// | cE | F E/F/ | c2 | f>d/c// | BD | FD/F/ | B2 | c>B | 
AE | Fc | EF | BF B/d/ | f2F | f>e/d// | cE | FE/F/ | c2 | 
f>d/c// | BD | FD/F/ | B2 | c>B | AE | Fc | EF | (B2 | B) || 
L:1/4
M:2/4+3/4
[P:B] f>e/d// | c//e//d//c// B//d//c//B// A//c//B//A// | BD | F>D/F// B//D//F//d// | cEF | 
f>eg | feA | B2d | !breath!F3 | f>e/d// | c//e//d//c// B//d//c//B// A//c//B//A// | 
BD | F>D/F// B//D//F//d// | cEF | f>eg | feA | !fermata!B2z || 
L:1/4
M:3/4
[P:C] "sehr langsam"  !f!FDG | F3 | "Echo" !p!FDG | F3 | !f!dBe | d3 | "Echo" !p!dBe | d3 | 
"schnelles Walzertempo" !f!cF/F/ F/F/ | cF/F/ F/F/ | BFd | BFd | 
cF/F/ F/F/ | cFd | Bde | f3 | "sehr langsam"  !f!FDG | F3 | "Echo" !p!FDG | F3 | 
!f!dBe | d3 | "Echo" !p!dBe | d3 | "schnell" !f! cF/F/ F/F/ | cF/F/ F/F/ | 
BFd | BFd | cF/F/ F/F/ | cFd | (B3 | B)zz |] 
%W:Reihenfolge: A-B-A-C
W:
W:Edi Schrackmann, bearbeitet: Edi Gasser
W:UJV-Naturjodelsammlung: Code-Nr: 10-02
W:http://www.naturjodler.ch/code 10.htm  (with AUDIO)
%May 6, 2018

